view/frontend/web/svg/lucide/github.svg

<svg
  xmlns="http://www.w3.org/2000/svg"
  width="24"
  height="24"
  viewBox="0 0 24 24"
  fill="none"
  stroke="currentColor"
  stroke-width="2"
  stroke-linecap="round"
  stroke-linejoin="round"
>
  <path d="M15 22v-4a4.8 4.8 0 0 0-1-3.5c3 0 6-2 6-5.5.08-1.25-.27-2.48-1-3.5.28-1.15.28-2.35 0-3.5 0 0-1 0-3 1.5-2.64-.5-5.36-.5-8 0C6 2 5 2 5 2c-.3 1.15-.3 2.35 0 3.5A5.403 5.403 0 0 0 4 9c0 3.5 3 5.5 6 5.5-.39.49-.68 1.05-.85 1.65-.17.6-.22 1.23-.15 1.85v4" />
  <path d="M9 18c-4.51 2-5-2-7-2" />
</svg>

<svg
  xmlns="http://www.w3.org/2000/svg"
  width="24"
  height="24"
  viewBox="0 0 24 24"
  fill="none"
  stroke="currentColor"
  stroke-width="2"
  stroke-linecap="round"
  stroke-linejoin="round"
>
  <path d="M15 22V18C15.14 16.75 14.78 15.49 14 14.5C17 14.5 20 12.5 20 9C20.08 7.75 19.73 6.52 19 5.5C19.28 4.35 19.28 3.15 19 2C19 2 18 2 16 3.5C13.36 3 10.64 3 8 3.5C6 2 5 2 5 2C4.7 3.15 4.7 4.35 5 5.5C4.27 6.52 3.92 7.75 4 9C4 12.5 7 14.5 10 14.5C9.61 14.99 9.32 15.55 9.15 16.15C8.98 16.75 8.93 17.38 9 18V22" />
  <path d="M9 18c-4.51 2-5-2-7-2" />
</svg>
